X: 4
I: linebreak $
T: Tinternell
T: for couples
P: A BB C AAA BB C
C: Dallis Lute Book, c.1583
K: A minor
M: 2/4
L: 1/16
P: A
"Dm"F2G2 | "A"A4 A2G2 | "Dm"F2E2 F4 | "C"E4 E2F2 | E4 "Dm"D4 | "A"^C4 "Gm"D4 | "A"F2ED F2E2 | 
"D"D8 | D4 :: 
P: B
"F"C2D2 | "C"E4 E4 | "Dm"D2E2 F2G2 | "A"A8 | "A"A4 :| 
P: C
"Dm"F4 | 
"C"E6D2 | E4 "Dm"F4 | "Gm"G6F2 | "Em"E4 D4 | "A"E4 "Dm"D4 | "Em"E4 "A"E4 | 
"D"D8 | "D"D4 |] 

